X:877
T:Stony Steps
R:reel
D:Matt Molloy: Stony Steps
Z:id:hn-reel-877
M:C|
L:1/8
K:D
~A3B AF~F2 | ABdf edBA | FA~A2 BF~F2 | EFGE FDD2 :||: fedc defg |
afbf afeg |1 fded fded | (3Bcd AF FEEg :|2 ~f3a ~e3f | dfaf efdB ||
P:variations
|: ~A3B AF~F2 | ABdf edBA | FA~A2 BFAF | GFEG FDD2 :||: fedc defg |
a2bf afeg |1 fded fded | (3Bcd AF FEEg :|2 ~f3d e2de | fgaf efdB ||

